src/assets/img/icons/icon-share--website.svg

<svg fill="none" height="20" viewBox="0 0 20 20" width="20" xmlns="http://www.w3.org/2000/svg"><path clip-rule="evenodd" d="m5.98487 8.44101c.81972-1.97464 2.67498-2.9575 4.07583-2.95948-.0248.00297.1455.02479 8.9308.02479-3.0938-5.9507-8.9229-5.49844658-8.9229-5.49844658-5.89542.23207758-8.2041 4.53939658-8.2041 4.53939658l4.06692 3.99689zm-.17418 2.88809c-1.17216-2.03419-3.34026-5.72759-3.94614-6.78186-3.95999 5.61546-.38114 10.53576-.38114 10.53576 3.04523 4.8319 7.61605 4.9083 7.91206 4.9083l1.31963-5.4766c-2.22746.3292-4.31239-1.0642-4.90441-3.1856zm13.18091-5.82275-5.446 1.7019c.8722 1.13857 1.6157 3.78865-.1396 5.82175-1.1534 2.0014-3.3908 5.8872-4.01049 6.9613 6.61719.252 9.31789-5.066 9.31789-5.066 2.6373-5.02733.4277-9.11249.2782-9.41895zm-5.2489 4.63165c0 2.0331-1.6454 3.6844-3.6779 3.6844-2.02949 0-3.67784-1.6513-3.67784-3.6844 0-2.03319 1.64538-3.68451 3.67784-3.68451 2.0295 0 3.6779 1.64835 3.6779 3.68451z" fill="#ed3439" fill-rule="evenodd"/></svg>

<svg width="20" height="20" viewBox="0 0 20 20" fill="none" xmlns="http://www.w3.org/2000/svg">
<path fill-rule="evenodd" clip-rule="evenodd" d="M5.98487 8.44101C6.80459 6.46637 8.65985 5.48351 10.0607 5.48153C10.0359 5.4845 10.2062 5.50632 18.9915 5.50632C15.8977 -0.44438 10.0686 0.00787342 10.0686 0.00787342C4.17318 0.239951 1.8645 4.54727 1.8645 4.54727L5.93142 8.54416L5.98487 8.44101ZM5.81069 11.3291C4.63853 9.29491 2.47043 5.60151 1.86455 4.54724C-2.09544 10.1627 1.48341 15.083 1.48341 15.083C4.52864 19.9149 9.09946 19.9913 9.39547 19.9913L10.7151 14.5147C8.48764 14.8439 6.40271 13.4505 5.81069 11.3291V11.3291ZM18.9916 5.50635L13.5456 7.20825C14.4178 8.34682 15.1613 10.9969 13.406 13.03C12.2526 15.0314 10.0152 18.9172 9.39551 19.9913C16.0127 20.2433 18.7134 14.9253 18.7134 14.9253C21.3507 9.89797 19.1411 5.81281 18.9916 5.50635V5.50635ZM13.7427 10.138C13.7427 12.1711 12.0973 13.8224 10.0648 13.8224C8.03531 13.8224 6.38696 12.1711 6.38696 10.138C6.38696 8.10481 8.03234 6.45349 10.0648 6.45349C12.0943 6.45349 13.7427 8.10184 13.7427 10.138V10.138Z" fill="#ED3439"/>
</svg>
